svgs/sharp-solid/objects-align-center-vertical.svg

<svg xmlns="http://www.w3.org/2000/svg" viewBox="0 0 512 512"><!--! Font Awesome Pro 6.6.0 by @fontawesome - https://fontawesome.com License - https://fontawesome.com/license (Commercial License) Copyright 2024 Fonticons, Inc. --><path d="M64 32l160 0 0 200 64 0 0-136 160 0 0 136 64 0 0 48-64 0 0 136-160 0 0-136-64 0 0 200L64 480l0-200L0 280l0-48 64 0L64 32z"/></svg>

<svg xmlns="http://www.w3.org/2000/svg" viewBox="0 0 512 512"><!--! Font Awesome Pro 6.5.2 by @fontawesome - https://fontawesome.com License - https://fontawesome.com/license (Commercial License) Copyright 2024 Fonticons, Inc. --><path d="M64 32H224V232h64V96H448V232h64v48H448V416H288V280H224V480H64V280H0V232H64V32z"/></svg>
